X: 3269
T: The IRISH HUT
%R: jig
B: James Kerr "Merry Melodies" v.3 p.29 #269
Z: 2016 John Chambers <jc:trillian.mit.edu>
M: 6/8
L: 1/8
K: G
|:\
d3  e3  | dBG G3  | A3  B3  | AFD D3 |\
GFG AGA | BAB cBc | d2g d2c | BGG G2 :|
|:\
g3  a3  | gdd d3  | a3  b3  | aee e3 |\
gbg faf | ege dBd | efg d2c | BGG G3 :|

%%sep 1 1 500
%%sep 1 1 500

